img/icons/user/Map_Pin.svg

<svg width="24" height="24" viewBox="0 0 24 24" fill="none" xmlns="http://www.w3.org/2000/svg">
<path fill-rule="evenodd" clip-rule="evenodd" d="M9.40303 8.06281C10.0898 7.38356 11.0237 7 11.9997 7C12.9757 7 13.9095 7.38356 14.5963 8.06282C15.2827 8.7417 15.6663 9.66009 15.6663 10.6154C15.6663 11.9422 15.0824 13.216 14.2832 14.3273C13.5105 15.4016 12.5917 16.2469 11.9997 16.7363C11.4078 16.2469 10.4889 15.4016 9.71622 14.3273C8.91691 13.216 8.33301 11.9422 8.33301 10.6154C8.33301 9.66012 8.7166 8.74169 9.40303 8.06281ZM11.9997 5C10.5004 5 9.0602 5.58895 7.99665 6.6408C6.93274 7.69302 6.33301 9.12252 6.33301 10.6154C6.33301 12.5231 7.16393 14.204 8.09257 15.4951C9.02625 16.7933 10.1185 17.781 10.7816 18.324L10.817 18.3533L10.817 18.3533C10.9603 18.4723 11.2042 18.6748 11.5479 18.7716C11.8293 18.8508 12.17 18.8508 12.4513 18.7716C12.7951 18.6748 13.039 18.4724 13.1826 18.3531L13.2178 18.324C13.881 17.781 14.9732 16.7933 15.9068 15.4951C16.8354 14.204 17.6663 12.5231 17.6663 10.6154C17.6663 9.12251 17.0666 7.69304 16.0027 6.64081C14.9392 5.58897 13.4991 5 11.9997 5ZM11.6663 10.6667C11.6663 10.4826 11.8156 10.3333 11.9997 10.3333C12.1838 10.3333 12.333 10.4826 12.333 10.6667C12.333 10.8508 12.1838 11 11.9997 11C11.8156 11 11.6663 10.8508 11.6663 10.6667ZM11.9997 8.33333C10.711 8.33333 9.66634 9.378 9.66634 10.6667C9.66634 11.9553 10.711 13 11.9997 13C13.2883 13 14.333 11.9553 14.333 10.6667C14.333 9.378 13.2883 8.33333 11.9997 8.33333Z" fill="#8C8D92"/>
</svg>

<svg width="24" height="24" fill="none" xmlns="http://www.w3.org/2000/svg"><path fill-rule="evenodd" clip-rule="evenodd" d="M9.403 8.063A3.693 3.693 0 0 1 12 7c.976 0 1.91.384 2.596 1.063a3.59 3.59 0 0 1 1.07 2.552c0 1.327-.584 2.601-1.383 3.712-.772 1.075-1.691 1.92-2.283 2.41-.592-.49-1.511-1.335-2.284-2.41-.8-1.111-1.383-2.385-1.383-3.712a3.59 3.59 0 0 1 1.07-2.552ZM12 5c-1.5 0-2.94.589-4.003 1.64a5.59 5.59 0 0 0-1.664 3.975c0 1.908.83 3.589 1.76 4.88.933 1.298 2.025 2.286 2.689 2.829l.035.03c.143.118.387.32.73.418.282.079.623.079.904 0 .344-.097.588-.3.732-.419l.035-.029c.663-.543 1.755-1.53 2.689-2.829.928-1.291 1.76-2.972 1.76-4.88a5.59 5.59 0 0 0-1.664-3.974A5.693 5.693 0 0 0 12 5Zm-.334 5.667a.333.333 0 1 1 .667 0 .333.333 0 0 1-.667 0ZM12 8.333A2.333 2.333 0 1 0 12 13a2.333 2.333 0 0 0 0-4.667Z" fill="#8C8D92"/></svg>
